packages/foundations/assets/icons/functional/images/transportation/taxi_12.svg

<svg width="12" height="12" viewBox="0 0 12 12" fill="none" xmlns="http://www.w3.org/2000/svg">
<g clip-path="url(#clip0_232_497)">
<path fill-rule="evenodd" clip-rule="evenodd" d="M7.79995 1.5V2.4036L8.22324 2.40404C8.71113 2.44416 9.11926 2.77972 9.29389 3.24606C9.37806 3.52807 9.54068 4.24605 9.78175 5.4H10.8V6.60202L10.137 6.6C10.0444 7.46762 9.9844 7.99342 9.95693 8.17739C9.91192 8.41132 9.78175 8.70195 9.59995 8.89498V10.5H8.09995V9.4446C7.39995 9.5482 6.69995 9.6 5.99995 9.6C5.29995 9.6 4.59995 9.5482 3.89995 9.4446V10.5H2.39995V8.89498C2.25611 8.76761 2.12219 8.48219 2.06995 8.29284C2.02826 8.14663 1.95906 7.58235 1.86235 6.6L1.19995 6.60202V5.4H2.21755L2.67425 3.34102C2.81705 2.85798 3.20362 2.49474 3.6802 2.41595C3.79788 2.40111 3.97114 2.39699 4.19995 2.4036V1.5H7.79995ZM8.99995 6.69H7.94995V7.71H8.99995V6.69ZM4.04995 6.69H2.99995V7.71H4.04995V6.69ZM7.19995 6.69H4.79995V7.71H7.19995V6.69ZM8.3482 3.42H3.65171L3.26575 5.4H8.73355L8.3482 3.42Z" fill="#1A1C1F"/>
</g>
<defs>
<clipPath id="clip0_232_497">
<rect width="12" height="12" fill="white"/>
</clipPath>
</defs>
</svg>

<svg xmlns="http://www.w3.org/2000/svg" width="12" height="12" fill="none"><g clip-path="url(#a)"><path fill="#1A1C1F" fill-rule="evenodd" d="M7.8 1.5v.904h.423c.488.04.896.376 1.07.842q.128.423.489 2.154H10.8v1.202l-.663-.002a59 59 0 0 1-.18 1.577 1.55 1.55 0 0 1-.357.718V10.5H8.1V9.445a14.3 14.3 0 0 1-4.2 0V10.5H2.4V8.895c-.144-.127-.278-.413-.33-.602q-.062-.219-.208-1.693l-.662.002V5.4h1.018l.456-2.059c.143-.483.53-.846 1.006-.925a4 4 0 0 1 .52-.012V1.5zM9 6.69H7.95v1.02H9zm-4.95 0H3v1.02h1.05zm3.15 0H4.8v1.02h2.4zm1.148-3.27H3.652L3.266 5.4h5.468z" clip-rule="evenodd"/></g><defs><clipPath id="a"><path fill="#fff" d="M0 0h12v12H0z"/></clipPath></defs></svg>
